icons-rebrand/svg/portrait-landscape-bold.svg

<svg xmlns="http://www.w3.org/2000/svg" width="32" height="32" viewBox="0 0 32 32" fill="none"><path d="M19 11C19 10.4477 19.4477 10 20 10H24C26.7614 10 29 12.2386 29 15V23C29 25.7614 26.7614 28 24 28H17C16.4477 28 16 27.5523 16 27C16 26.4477 16.4477 26 17 26H24C25.6569 26 27 24.6569 27 23V15C27 13.3431 25.6569 12 24 12H20C19.4477 12 19 11.5523 19 11Z M3 9C3 6.23858 5.23858 4 8 4H16C18.7614 4 21 6.23858 21 9V23C21 25.7614 18.7614 28 16 28H8C5.23858 28 3 25.7614 3 23V9ZM8 6C6.34315 6 5 7.34315 5 9V23C5 24.6569 6.34315 26 8 26H16C17.6569 26 19 24.6569 19 23V9C19 7.34315 17.6569 6 16 6H8Z M9 9C9 8.44772 9.44772 8 10 8H14C14.5523 8 15 8.44772 15 9C15 9.55228 14.5523 10 14 10H10C9.44772 10 9 9.55228 9 9Z"/></svg>

<svg width="32" height="32" fill="none" xmlns="http://www.w3.org/2000/svg"><path fill-rule="evenodd" clip-rule="evenodd" d="M19 11a1 1 0 0 1 1-1h4a5 5 0 0 1 5 5v8a5 5 0 0 1-5 5h-7a1 1 0 1 1 0-2h7a3 3 0 0 0 3-3v-8a3 3 0 0 0-3-3h-4a1 1 0 0 1-1-1Z" fill="#0F0F0F"/><path fill-rule="evenodd" clip-rule="evenodd" d="M3 9a5 5 0 0 1 5-5h8a5 5 0 0 1 5 5v14a5 5 0 0 1-5 5H8a5 5 0 0 1-5-5V9Zm5-3a3 3 0 0 0-3 3v14a3 3 0 0 0 3 3h8a3 3 0 0 0 3-3V9a3 3 0 0 0-3-3H8Z" fill="#0F0F0F"/><path fill-rule="evenodd" clip-rule="evenodd" d="M9 9a1 1 0 0 1 1-1h4a1 1 0 1 1 0 2h-4a1 1 0 0 1-1-1Z" fill="#0F0F0F"/></svg>
